X: 145
T: Do You Remember That Night?
N:"Moderate"
B:O'Neill's 145
Z:Transcribed by henrik.norbeck@mailbox.swipnet.se
M:3/4
L:1/8
K:A
(3EFG|A2 A2 BA|G2 A2 (3Bcd|e2 dB A>B|G2 E2 (3EFG|
A2 A2 BA|G2 A2 (3Bcd|e2 d>B A>B|A4||
(3Bcd|e2 e2 e2|d2 d2 ed|c2 B2 A2|G2 E2 (3EFG|
A2 A2 BA|G2 A2 (3Bcd|e2 d>B A>B|A4||


